X: 31030
T: Paddy Canny's Toast
R: reel
M: 4/4
K: Gdorian
D|:G2 cG dGcG|F/G/F cF dFcF|G2 cG dGcG|efcA FGAF|
G2 cG dGcG|F2 cF CFcF|DEFA GABd|cAfc AB{c}BA:|
Gg{a}gd gdBA|G{A}GgG fgeg|fB B/B/B fBgB|fBBg fdcA|
[G3G,3] g gdBA|Gg{a}ga bage|{a}ef{a}fg af{a}ge|fdcA B/c/B BA:|G4||

